X:28
T:Vauxhall Jubilee. THO5.028
M:6/8
L:1/8
B:Thompson's Complete Collection of 200 Favourite Dances Vol.5
F:https://www.libraryofdance.org/manuals/1780c-Thompson-Compleat-5.pdf
Z:vmp. Peter Dunk 2024
Q:3/8=100
K:D
f2g aba|agf fed|gab afd|Bed cBA|
f2g a>ba|agf fed|Bed cBc|d3 D3:|
|:Ace Ace|Adf Adf|Beg fed|ced cBA|
Ace Ace|Adf Adf|Beg fed|edc d3:|
W:
W:Cast off two Couple: up again ./.
W:right hands across left hands, back again ./:
W:lead down the middle, up again and cast off :/.
W:Allemand with your Partner :/:

